svg/chimney.svg

<svg xmlns="http://www.w3.org/2000/svg" viewBox="0 0 100 100">
  <path fill="currentColor" d="M19 0v11h4v3h3v7h-4v6h-2v7h2v2h2v8h2v4h-2v10h2v3h4v-5h-2v-3h3v-9h2V34h-2v-6h4v-3h3v-9h-3v-3h-2V0H19Z"/>
  <path d="M35 64v10h48v6h4v5h4v5h4v5h4v5H0V80h4v-6h16V64h15Z"/>
</svg>

<svg width="100" height="100" viewBox="0 0 100 100" fill="none" xmlns="http://www.w3.org/2000/svg">
<path d="M19 0V11H23V14H26V21H22V27H20V34H22V36H24V44H26V48H24V58H26V61H30V56H28V53H31V44H33V34H31V28H35V25H38V16H35V13H33V0H19Z" fill="#8E8E8E"/>
<path d="M35 64V74H83V80H87V85H91V90H95V95H99V100H0V80H4V74H20V64H35Z" fill="black"/>
</svg>
